public/images/logos/imgur.svg

<?xml version="1.0" encoding="UTF-8" standalone="no"?>
<!-- Uploaded to: SVG Repo, www.svgrepo.com, Generator: SVG Repo Mixer Tools -->

<svg fill="#000000" width="32" height="32" viewBox="0 0 1.28 1.28" version="1.1" id="svg1" sodipodi:docname="imgur-svgrepo-com.svg" inkscape:version="1.4-beta2 (9aaf4f34, 2024-07-30)" xmlns:inkscape="http://www.inkscape.org/namespaces/inkscape" xmlns:sodipodi="http://sodipodi.sourceforge.net/DTD/sodipodi-0.dtd" xmlns="http://www.w3.org/2000/svg" xmlns:svg="http://www.w3.org/2000/svg" xmlns:rdf="http://www.w3.org/1999/02/22-rdf-syntax-ns#" xmlns:cc="http://creativecommons.org/ns#" xmlns:dc="http://purl.org/dc/elements/1.1/">
  <defs id="defs1" />
  <sodipodi:namedview id="namedview1" pagecolor="#ffffff" bordercolor="#000000" borderopacity="0.25" inkscape:showpageshadow="2" inkscape:pageopacity="0.0" inkscape:pagecheckerboard="0" inkscape:deskcolor="#d1d1d1" inkscape:zoom="0.5" inkscape:cx="-18" inkscape:cy="2663" inkscape:window-width="1440" inkscape:window-height="790" inkscape:window-x="0" inkscape:window-y="0" inkscape:window-maximized="1" inkscape:current-layer="svg1" />
  <title id="title1">imgur</title>
  <path d="m 0.7201414,1.0556515 c 0.0236,-0.0096 0.041524,-0.02894 0.048992,-0.05288 l 1.707e-4,-5.97e-4 c 0,-0.0047 0.00385,-0.0086 0.00858,-0.0086 0.00473,0 0.00858,0.0038 0.00858,0.0086 v 0 c 0.00764,0.02454 0.025521,0.04387 0.048566,0.0533 l 5.547e-4,2.13e-4 c 4.27e-5,0 4.27e-5,0 8.55e-5,0 0.00473,0 0.00858,0.0038 0.00858,0.0086 0,0.0047 -0.00385,0.0086 -0.00858,0.0086 -4.28e-5,0 -4.28e-5,0 -8.55e-5,0 v 0 c -0.0236,0.0096 -0.041524,0.02902 -0.048949,0.053 l -1.707e-4,5.97e-4 c 0,0.0047 -0.00385,0.0086 -0.00858,0.0086 -0.00473,0 -0.00858,-0.0038 -0.00858,-0.0086 v 0 c -0.00759,-0.02462 -0.02552,-0.044 -0.048608,-0.05339 l -5.548e-4,-2.14e-4 c -4.26e-5,0 -4.26e-5,0 -8.54e-5,0 -0.00473,0 -0.00858,-0.0038 -0.00858,-0.0086 0,-0.0047 0.00385,-0.0086 0.00858,-0.0086 4.28e-5,0 4.28e-5,0 8.54e-5,0 v 0 z m -0.1127929,0.129948 c -0.013272,0.0054 -0.023344,0.01634 -0.027526,0.02983 l -8.54e-5,3.42e-4 c -4.27e-5,0.0026 -0.00218,0.0048 -0.00482,0.0048 -0.00265,0 -0.00478,-0.0021 -0.00482,-0.0048 v 0 c -0.00427,-0.01387 -0.014382,-0.02479 -0.027356,-0.03009 l -2.986e-4,-1.29e-4 c -0.00265,0 -0.00478,-0.0021 -0.00478,-0.0048 0,-0.0026 0.00214,-0.0048 0.00478,-0.0048 v 0 c 0.013315,-0.0054 0.023387,-0.01634 0.027568,-0.02983 l 8.54e-5,-3.4e-4 c 0,0 0,0 0,0 0,-0.0026 0.00214,-0.0048 0.00478,-0.0048 v 0 c 0.00265,0 0.00482,0.0021 0.00486,0.0048 v 0 c 0.00427,0.01382 0.014339,0.02475 0.027312,0.03009 l 2.987e-4,1.28e-4 c 0.00265,0 0.00478,0.0021 0.00478,0.0048 0,0.0026 -0.00214,0.0048 -0.00478,0.0048 z M 0.4699743,1.0741305 c -0.052108,-0.03957 -0.09824,-0.0795 -0.1416845,-0.122182 l 2.134e-4,2.13e-4 c -0.042506,-0.04323 -0.08245,-0.08941 -0.119365,-0.138014 l -0.00261,-0.0035 c -0.014339,-0.01767 -0.023045,-0.04045 -0.023045,-0.06526 0,-0.02885 0.011736,-0.05493 0.030727,-0.07375 l 4.27e-5,-4.3e-5 8.53e-5,-4.3e-5 0.2857613,-0.284299 -0.1183834,-0.117316 c -0.018735,-0.01848 -0.0303,-0.04408 -0.0303,-0.07247 0,-0.01144 0.00188,-0.02241 0.00537,-0.03269 l -2.133e-4,7.25e-4 c 0.00853,-0.02394 0.024837,-0.04331 0.045749,-0.05569 l 4.694e-4,-2.56e-4 c 0.00567,-0.0038 0.012205,-0.0072 0.019076,-0.0099 l 7.255e-4,-2.57e-4 c 0.00717,-0.003 0.015577,-0.0055 0.024325,-0.0069 l 6.401e-4,-8.5e-5 7.683e-4,-2.14e-4 c 0.1578587,-0.02449 0.3411097,-0.03931 0.5275187,-0.04092 h 0.00188 c 0.0038,-4.3e-5 0.00828,-4.3e-5 0.012718,-4.3e-5 0.048437,0 0.09632,0.0024 0.1435195,0.007 l -0.00597,-4.69e-4 c 0.025733,0.0025 0.04848,0.01374 0.065508,0.03073 v 0 c 0.016942,0.01715 0.027996,0.04012 0.029959,0.0656 v 3.42e-4 c 0.00316,0.05292 0.00495,0.114841 0.00495,0.177191 0,0.176849 -0.014425,0.350285 -0.042164,0.519282 l 0.00248,-0.01844 -3.842e-4,0.0013 c -0.00197,0.0117 -0.00529,0.0222 -0.0099,0.03196 l 2.987e-4,-7.26e-4 c -3.414e-4,8.97e-4 -6.401e-4,0.0016 -0.00103,0.0023 l 4.27e-5,-1.28e-4 c -0.016643,0.03645 -0.052577,0.06145 -0.094357,0.06201 h -8.23e-5 c -4.27e-5,0 -8.54e-5,0 -8.54e-5,0 -0.028294,0 -0.0539,-0.01157 -0.072293,-0.03022 v 0 l -1.707e-4,-1.28e-4 -2.134e-4,-2.14e-4 -0.1168897,-0.118127 -0.2845213,0.285887 c -0.018735,0.01886 -0.044724,0.03056 -0.073403,0.03056 -4.27e-5,0 -4.27e-5,0 -8.54e-5,0 v 0 c -0.02488,-8.5e-5 -0.047755,-0.0087 -0.06585,-0.02304 l 2.134e-4,1.71e-4 z m -0.1025079,0.04301 c -0.019417,0.0079 -0.034141,0.0239 -0.040286,0.04361 l -1.28e-4,4.69e-4 c 0,0.0039 -0.00316,0.0071 -0.00708,0.0071 -0.00393,0 -0.00708,-0.0032 -0.00708,-0.0071 v 0 c -0.00627,-0.02023 -0.020997,-0.03615 -0.039944,-0.04395 l -4.694e-4,-1.7e-4 c -0.00389,-4.3e-5 -0.00704,-0.0032 -0.00708,-0.0071 v 0 c 0,-0.0039 0.00316,-0.007 0.00704,-0.007 0,0 4.26e-5,0 4.26e-5,0 v 0 c 0.01946,-0.0079 0.034226,-0.0239 0.040286,-0.04366 l 1.281e-4,-4.69e-4 c 0,-0.0039 0.00316,-0.0071 0.00708,-0.0071 0.00393,0 0.00708,0.0032 0.00708,0.0071 v 0 c 0.00623,0.02027 0.020997,0.03623 0.039944,0.044 l 4.695e-4,1.71e-4 c 0.00389,0 0.00708,0.0032 0.00708,0.0071 0,0.0039 -0.00316,0.0071 -0.00708,0.0071 v 0 z M 0.1896779,0.8834535 c -0.013358,0.0055 -0.023472,0.01639 -0.027697,0.02996 l -8.53e-5,3.41e-4 c 0,1.7e-4 4.27e-5,3.41e-4 4.27e-5,5.12e-4 0,0.0027 -0.00218,0.0049 -0.0049,0.0049 -0.00273,0 -0.0049,-0.0022 -0.0049,-0.0049 0,-1.71e-4 0,-3.42e-4 4.27e-5,-5.12e-4 v 0 c -0.00432,-0.01391 -0.014425,-0.02484 -0.027483,-0.03018 l -2.987e-4,-1.28e-4 c 0,0 -4.26e-5,0 -4.26e-5,0 -0.00265,0 -0.00478,-0.0021 -0.00478,-0.0048 v 0 c 0,0 0,0 0,-4.3e-5 0,-0.0027 0.00218,-0.0049 0.00486,-0.0049 v 0 c 0.013358,-0.0055 0.023472,-0.01638 0.027697,-0.02996 l 8.54e-5,-3.4e-4 c 0,-0.0027 0.00218,-0.0049 0.00486,-0.0049 0.00269,0 0.00486,0.0022 0.00486,0.0049 v 0 c 0.00432,0.01391 0.014425,0.02484 0.027483,0.03018 l 2.988e-4,1.28e-4 c 0.00269,0 0.00486,0.0022 0.00486,0.0049 0,0.0027 -0.00218,0.0049 -0.00486,0.0049 v 0 z m -0.0303,0.162468 c -0.010797,0.0044 -0.018948,0.01323 -0.022319,0.02419 l -8.53e-5,2.56e-4 c -4.28e-5,0.0021 -0.00179,0.0039 -0.00393,0.0039 -0.00214,0 -0.00393,-0.0018 -0.00393,-0.0039 v 0 c -0.00346,-0.01123 -0.011608,-0.0201 -0.022149,-0.02436 l -2.56e-4,-8.5e-5 c 0,0 0,0 0,0 -0.00218,0 -0.00393,-0.0018 -0.00393,-0.0039 v 0 c 4.27e-5,-0.0021 0.00179,-0.0039 0.00393,-0.0039 v 0 c 0.010754,-0.0044 0.018906,-0.01319 0.022319,-0.02411 l 8.53e-5,-2.56e-4 c 4.27e-5,-0.0021 0.00179,-0.0039 0.00393,-0.0039 0.00214,0 0.00393,0.0018 0.00393,0.0039 v 0 c 0.0035,0.01118 0.011651,0.02002 0.022149,0.02428 l 2.561e-4,8.6e-5 c 0.00214,4.3e-5 0.00385,0.0018 0.00389,0.0039 v 0 c 0,0.0021 -0.00175,0.0039 -0.00389,0.0039 z m -0.083475,-0.496323 c 0,-0.0035 0.00303,-0.0052 0.00636,-0.0063 0.038025,-0.01208 0.066618,-0.04336 0.074683,-0.08215 l 1.281e-4,-7.25e-4 c 0,-0.0035 0.00282,-0.0063 0.00631,-0.0063 0.0035,0 0.00631,0.0028 0.00631,0.0063 v 0 c 0.00811,0.03952 0.036701,0.0708 0.073958,0.08267 l 7.682e-4,2.12e-4 c 0.00329,0.0011 0.00627,0.0028 0.00627,0.0063 0,0.0035 -0.00299,0.0052 -0.00627,0.0064 -0.038025,0.01204 -0.06666,0.04331 -0.074683,0.08211 l -1.281e-4,7.25e-4 c 0,0.0035 -0.00282,0.0063 -0.00631,0.0063 -0.0035,0 -0.00631,-0.0028 -0.00631,-0.0063 v 0 c -0.00815,-0.03952 -0.036787,-0.07076 -0.074043,-0.08262 l -7.681e-4,-2.13e-4 c -0.00325,-0.0012 -0.00623,-0.0029 -0.00623,-0.0064 z m 0.2127836,-0.173862 c 0.01882,-0.0077 0.033117,-0.02313 0.039091,-0.04225 l 1.28e-4,-4.69e-4 c 4.27e-5,-0.0038 0.00308,-0.0068 0.00683,-0.0069 v 0 c 0.00376,0 0.00683,0.0031 0.00683,0.0069 0,0 0,0 0,4.3e-5 v 0 c 0.0061,0.01959 0.020356,0.03504 0.03875,0.04255 l 4.267e-4,1.7e-4 c 0.00376,0 0.00683,0.0031 0.00683,0.0068 0,0.0038 -0.00308,0.0068 -0.00683,0.0068 v 0 c -0.01882,0.0077 -0.033117,0.02313 -0.039048,0.04225 l -1.281e-4,4.69e-4 c 0,0.0038 -0.00308,0.0068 -0.00683,0.0068 -0.00376,0 -0.00683,-0.0031 -0.00683,-0.0068 v 0 c -0.00606,-0.01959 -0.020356,-0.03504 -0.03875,-0.04254 l -4.267e-4,-1.71e-4 c -0.00376,0 -0.00683,-0.0031 -0.00683,-0.0068 0,-0.0038 0.00308,-0.0068 0.00683,-0.0068 v 0 z m 0.6398847,0.54651 c -0.014425,0.0059 -0.02535,0.01771 -0.029916,0.0323 l -8.53e-5,3.84e-4 c 0,0 0,4.3e-5 0,8.5e-5 0,0.0029 -0.00235,0.0053 -0.00529,0.0053 -0.00295,0 -0.00529,-0.0024 -0.00529,-0.0053 0,-4.2e-5 0,-4.2e-5 0,-8.5e-5 v 0 c -0.00465,-0.01502 -0.01562,-0.02684 -0.029703,-0.03256 l -3.414e-4,-1.28e-4 c -0.00291,-4.3e-5 -0.00529,-0.0024 -0.00529,-0.0053 0,0 0,0 0,0 v 0 c 0,-0.0029 0.00235,-0.0052 0.00525,-0.0052 0,0 4.26e-5,0 4.26e-5,0 v 0 c 0.014467,-0.0059 0.025393,-0.01771 0.029916,-0.03239 l 8.53e-5,-3.42e-4 c 4.26e-5,-0.0029 0.00239,-0.0052 0.00529,-0.0052 0.00291,0 0.00525,0.0024 0.00529,0.0052 v 0 c 0.00465,0.01502 0.015577,0.02689 0.029703,0.0326 l 3.414e-4,1.28e-4 c 0.00261,3.83e-4 0.00456,0.0026 0.00456,0.0053 0,0.0027 -0.00197,0.0049 -0.00456,0.0053 h -4.27e-5 z m -0.081511,0.35771 0.3486633,-0.348663 -3.415e-4,-3.42e-4 c 0.022918,-0.02432 0.038622,-0.05561 0.043743,-0.09035 l 1.279e-4,-8.96e-4 c 0.025478,-0.152738 0.04003,-0.328734 0.04003,-0.508102 0,-0.06423 -0.00188,-0.128028 -0.00554,-0.191358 l 4.268e-4,0.0088 c -0.00316,-0.03794 -0.019545,-0.07153 -0.044468,-0.09666 v 0 c -0.025136,-0.02518 -0.058765,-0.0419 -0.096192,-0.04554 l -6.402e-4,-4.3e-5 c -0.042463,-0.0043 -0.091796,-0.0068 -0.1417272,-0.0068 -0.00473,0 -0.00947,4.3e-5 -0.014211,8.5e-5 h 7.255e-4 c -0.1908047,0.0017 -0.3766163,0.01669 -0.5583735,0.04413 l 0.02168,-0.0027 c -0.040115,0.0057 -0.074981,0.02488 -0.1005022,0.05275 l -1.279e-4,1.28e-4 -0.3396161,0.339658 v 0.845944 z M 1.128466,0.1623135 c 0,-1.28e-4 0,-2.99e-4 0,-4.69e-4 0,-0.0054 -0.00436,-0.0097 -0.00973,-0.0097 -1.281e-4,0 -2.56e-4,0 -3.841e-4,0 v 0 q -0.013571,-0.0015 -0.027185,-0.0024 l -0.00862,-5.54e-4 q -0.028892,-0.0019 -0.057869,-0.0024 l -0.011565,-2.56e-4 c -0.00918,-1.71e-4 -0.018649,-2.13e-4 -0.028379,-2.13e-4 l -0.010072,-4.3e-5 q -0.0236,0 -0.048992,5.54e-4 l -0.00563,1.71e-4 q -0.023216,5.13e-4 -0.046389,0.0014 l -0.012632,4.69e-4 c -0.017881,6.83e-4 -0.036062,0.0015 -0.054753,0.0026 l -6.401e-4,4.3e-5 c -0.019034,0.0011 -0.038622,0.0024 -0.058381,0.0038 l -0.014681,0.0011 c -0.016217,0.0012 -0.032477,0.0026 -0.049077,0.0041 l -0.013315,0.0011 q -0.030385,0.0028 -0.061667,0.0062 c -0.00427,4.69e-4 -0.00858,9.99e-4 -0.012889,0.0015 q -0.025521,0.0028 -0.051468,0.006 l -0.017582,0.0022 c -0.021509,0.0027 -0.042975,0.0056 -0.064654,0.0088 -0.00308,4.27e-4 -0.00584,0.0013 -0.00841,0.0025 l 1.707e-4,-8.6e-5 c -0.00205,9.82e-4 -0.00376,0.0023 -0.00516,0.0039 v 0 l -1.707e-4,1.28e-4 c -0.00111,0.0012 -0.00184,0.0029 -0.00184,0.0047 0,0.0019 7.682e-4,0.0036 0.00201,0.0049 v 0 l 2.56e-4,6.41e-4 0.1860249,0.184318 -0.3535284,0.351779 c -0.00171,0.0017 -0.00273,0.0041 -0.00273,0.0067 0,0.0026 0.00107,0.005 0.00273,0.0067 v 0 c 0.037043,0.04895 0.074512,0.09231 0.1144999,0.133107 l -2.135e-4,-2.14e-4 c 0.040585,0.03982 0.083943,0.07724 0.1296072,0.111854 l 0.00338,0.0024 c 0.00188,0.0016 0.00436,0.0026 0.007,0.0027 v 0 c 0.00248,0 0.00473,-0.0011 0.00636,-0.0027 v 0 l 0.3518213,-0.353528 0.1842326,0.186024 c 0.00132,0.0015 0.00325,0.0024 0.00537,0.0025 v 0 c 0.00512,0 0.00999,-0.0063 0.011309,-0.01558 0.024454,-0.146421 0.038451,-0.31512 0.038451,-0.487104 0,-0.05957 -0.00167,-0.118768 -0.00499,-0.177533 z" id="path1" style="stroke-width:0.042676" />
  <metadata id="metadata1">
    <rdf:RDF>
      <cc:Work rdf:about="">
        <dc:title>imgur</dc:title>
      </cc:Work>
    </rdf:RDF>
  </metadata>
</svg>

<svg width="32" height="32" viewBox="0 0 1.28 1.28" xmlns="http://www.w3.org/2000/svg">
  <path d="M.72 1.056a.084.084 0 0 0 .05-.053c0-.006.003-.01.008-.01s.008.004.008.01a.084.084 0 0 0 .049.052c.005 0 .01.004.01.01a.009.009 0 0 1-.01.008.084.084 0 0 0-.048.053.009.009 0 1 1-.017 0 .084.084 0 0 0-.05-.053.009.009 0 0 1-.009-.009c0-.004.004-.008.01-.008zm-.113.13a.047.047 0 0 0-.027.03.005.005 0 0 1-.01 0 .047.047 0 0 0-.027-.03.005.005 0 0 1-.005-.005c0-.003.002-.005.004-.005a.047.047 0 0 0 .028-.03c0-.003.002-.005.005-.005s.005.002.005.005a.048.048 0 0 0 .027.03c.003 0 .005.002.005.005a.005.005 0 0 1-.005.005zM.47 1.074A1.457 1.457 0 0 1 .328.952 1.435 1.435 0 0 1 .21.814L.207.811A.103.103 0 0 1 .214.67L.5.388.382.27A.101.101 0 0 1 .357.165.106.106 0 0 1 .402.11.108.108 0 0 1 .447.093h.002A3.73 3.73 0 0 1 .976.05H.99c.049 0 .097.003.144.007h-.006a.105.105 0 0 1 .095.096 3.204 3.204 0 0 1-.037.696L1.19.833v.002a.121.121 0 0 1-.01.032V.865l-.001.002a.105.105 0 0 1-.095.062.101.101 0 0 1-.072-.03L.894.78l-.285.286a.103.103 0 0 1-.073.03.106.106 0 0 1-.066-.022zm-.103.043a.07.07 0 0 0-.04.044.007.007 0 1 1-.014 0 .07.07 0 0 0-.04-.044.007.007 0 0 1-.008-.007c0-.004.004-.007.007-.007a.07.07 0 0 0 .04-.044.007.007 0 1 1 .015 0 .07.07 0 0 0 .04.044.007.007 0 0 1 0 .014zM.19.883a.048.048 0 0 0-.028.03v.001a.005.005 0 1 1-.01 0 .048.048 0 0 0-.027-.03A.005.005 0 0 1 .12.878C.12.876.122.874.124.874a.048.048 0 0 0 .028-.03C.152.84.154.838.157.838S.162.84.162.843a.048.048 0 0 0 .027.03c.003 0 .006.003.006.006A.005.005 0 0 1 .19.884zm-.03.163a.038.038 0 0 0-.023.024.004.004 0 0 1-.004.004.004.004 0 0 1-.004-.004.038.038 0 0 0-.022-.024.004.004 0 0 1-.004-.004c0-.002.002-.004.004-.004a.038.038 0 0 0 .022-.024c0-.002.002-.004.004-.004s.004.002.004.004c.003.01.012.02.022.024.003 0 .004.002.004.004a.004.004 0 0 1-.004.004zM.075.55c0-.004.003-.006.006-.007A.11.11 0 0 0 .157.461C.157.456.16.453.163.453.167.454.17.457.17.46a.11.11 0 0 0 .074.083C.248.544.251.546.251.55.25.553.248.555.244.556A.11.11 0 0 0 .17.638a.006.006 0 0 1-.007.007A.006.006 0 0 1 .157.64.11.11 0 0 0 .083.556C.078.555.075.553.075.55zM.289.376A.067.067 0 0 0 .328.333C.328.329.33.326.335.326c.003 0 .007.003.007.007.006.02.02.035.038.043.005 0 .008.003.008.007A.007.007 0 0 1 .38.389a.067.067 0 0 0-.04.043.007.007 0 0 1-.006.007.007.007 0 0 1-.007-.007A.067.067 0 0 0 .289.39a.007.007 0 1 1 0-.014zm.64.546a.052.052 0 0 0-.03.033.005.005 0 0 1-.011 0 .051.051 0 0 0-.03-.033.005.005 0 0 1-.005-.005c0-.003.002-.005.005-.005a.051.051 0 0 0 .03-.033C.888.876.89.874.893.874S.898.876.9.879a.051.051 0 0 0 .03.033c.002 0 .004.002.004.005A.005.005 0 0 1 .93.922zm-.082.358.349-.349a.167.167 0 0 0 .043-.09V.84a3.15 3.15 0 0 0 .035-.7V.15a.157.157 0 0 0-.14-.142h-.001A1.441 1.441 0 0 0 .99 0H.977A3.97 3.97 0 0 0 .42.044L.441.042a.167.167 0 0 0-.1.052L0 .434v.846zM1.128.162a.01.01 0 0 0-.01-.01L1.091.15h-.008q-.03-.003-.058-.003H.92L.874.148H.86C.843.15.825.15.806.152a4.522 4.522 0 0 0-.059.004L.733.156a3.027 3.027 0 0 0-.05.005H.67L.61.169.596.169.544.175.527.178a3.004 3.004 0 0 0-.073.01.016.016 0 0 0-.005.005.007.007 0 0 0 0 .01l.186.184L.28.74a.01.01 0 0 0 0 .013c.037.05.075.093.115.134.04.04.083.077.13.111L.528 1a.012.012 0 0 0 .007.002A.01.01 0 0 0 .542 1L.894.646l.184.186a.008.008 0 0 0 .005.003c.005 0 .01-.007.012-.016a3.017 3.017 0 0 0 .033-.665z" style="stroke-width:.042676"/>
</svg>
